assets/images/dandelion-seed.svg

<svg height="60" width="60" xmlns="http://www.w3.org/2000/svg"><path d="m28.4934 24.7514h.2c7.4.4 17.1-2.6 19.5-3.5.2 0 .4-.1.6-.2001.5-.2999.9-.7.7-.8999-.1-.2001-.6-.2001-1.2.1-.3.0999-.5.2999-.6.5-2.3.7999-9.1 2.9-15.4 3.2999 4.4-1.2999 8.7-4.1 10.3-5.1.2-.1.4-.1999.6-.2999.5-.4.7-.8001.5-1-.2-.2001-.7-.1001-1.1.2999-.2.2001-.4.4-.5.6-1.9 1.2001-7.3 4.6001-12 5.4 5.6-2.1999 9.8-6.6 12.3-9 .3-.2999.6-.6999.9-.9.2-.1.5-.2.7-.5.4-.3999.6-.8999.4-1.1-.2-.1999-.7 0-1.1.4-.2.2-.3.4001-.4.6-.3.3001-.6.6-1 1-1.9 1.9-4.9 5-8.7 7.2001 1.9-1.9 3.3-4.1001 4.1-5.5.1-.1001.1-.2001.2-.3001.2-.0999.5-.3.6-.6999.3-.5.4-1 .1-1.2001-.2-.1-.6.2001-.9.7001-.1.1999-.2.3999-.2.5-.1.1999-.2.3999-.4.6-1.2 2-3.5 5.7999-6.9 7.5-.1 0-.2.0999-.3.0999 3.4-2.5999 6.5-9.3 7.9-12.5.1-.1999.2-.3.2-.5.2-.0999.4-.39995.5-.69995.2-.5.2-1.1 0-1.2s-.6.2-.9.8c-.1.2-.2.5-.2.7-.1.20005-.2.39995-.3.59995-1.3 3-4.7 10.3-8.2 12.5 1.2-2 3.6-7.1 4.4-9.3999.1-.2001.2-.4.3-.6001.2-.6.1-1.1-.2-1.1-.2-.1-.6.3001-.8.9-.1.3001-.1.6-.1.8001-.7 1.8999-2.6 6.1999-3.9 8.6.4-2.1 1.5-5.6 3.3-10.4001.2-.0999.3-.4.4-.6999.2-.6001.1-1.1001-.1-1.20005-.2-.1-.6.30005-.8.89995-.1.2-.1.5-.1.7-.7 1.9-2.6 6.6001-3.3 9.9 0-2.2999.4-5.1999.7-6.7999 0-.2001.1-.4.1-.5.1-.2001.3-.5.3-.8001.1-.5999 0-1.0999-.3-1.0999s-.5.4-.6 1v.6999c0 .2001-.1.4-.1.7001-.3 2-.9 5.5-.6 7.8999-1.5-3.8999-.5-11.3999-.1-14.49995 0-.3.1-.6.1-.8.1-.2.3-.4.3-.8.1-.6 0-1.1-.3-1.1s-.6.4-.7.9c0 .3-.1.5 0 .7 0 .3-.1.6-.1 1-.5 3.39995-1.4 10.70005.1 14.80005-.1-.1-.1-.1-.2-.2001-2-3.2999-1.9-7.7-1.9-10 0-.2999 0-.5 0-.7.1-.1999.2-.5.2-.8.1-.6-.1-1.09995-.4-1.09995s-.5.39995-.6.99995c0 .3001 0 .5.1.7001v.8999c0 1.6001-.1 4.2001.6 6.8-2-3.9-3-8.0999-3.5-10.69995-.2-.8-.3-1.4-.4-1.8.1-.2.1-.5 0-.8-.1-.6-.4-1-.7-.9s-.4.6-.2 1.1c.1.3.2.5.3.7.1.4.3 1.1.5 1.9.7 3.40005 2.1 9.30005 5.6 14.19995-3.9-3.6-7-10.2999-7.6-11.5 0-.2 0-.5-.1-.7-.2-.5-.6-.89995-.8-.8-.2.1001-.3.6001-.1 1.2001.1.2999.3.5.4.6999.5 1.2001 2.9 6.4 6.2 10.2001-5.4-3.9-10.3-9.7001-11.5-11.2001 0-.1999-.1-.4-.3-.6999-.3-.50005-.7-.80005-.9-.70005s-.2.60005.1 1.20005c.2.2999.4.5.6.5999 1.5 1.8001 8.2 9.8001 14.8 13.4001.1 0 .1.0999.2.0999v.1l-10.9 21.2001c-.7.7999-1.5 2.5-2.1 4.5-.8 3-.9 5.5-.2 5.6999.7.2 2-2 2.9-5 .6-2 .8-3.9.7-4.9z" name="Layer 1" stroke="#000" stroke-linecap="round" stroke-linejoin="round" stroke-miterlimit="2"/></svg>

<?xml version="1.0"?>
<svg version="1.1" xmlns="http://www.w3.org/2000/svg" xmlns:xlink="http://www.w3.org/1999/xlink" width="60" height="60">
    <desc iVinci="yes" version="4.6" gridStep="20" showGrid="no" snapToGrid="no" codePlatform="0"/>
    <g id="Layer1" name="Layer 1" opacity="1">
        <g id="Shape1">
            <desc shapeID="1" type="0" basicInfo-basicType="0" basicInfo-roundedRectRadius="12" basicInfo-polygonSides="6" basicInfo-starPoints="5" bounding="rect(-19.296,-25.614,38.592,51.2279)" text="" font-familyName="" font-pixelSize="20" font-bold="0" font-underline="0" font-alignment="1" strokeStyle="0" markerStart="0" markerEnd="0" shadowEnabled="0" shadowOffsetX="0" shadowOffsetY="2" shadowBlur="4" shadowOpacity="160" blurEnabled="0" blurRadius="4" transform="matrix(1,0,0,1,30.25,30.75)" pers-center="0,0" pers-size="0,0" pers-start="0,0" pers-end="0,0" locked="0" mesh="" flag=""/>
            <path id="shapePath1" d="M28.4934,24.7514 C28.5934,24.7514 28.5934,24.7514 28.6934,24.7514 C36.0934,25.1514 45.7934,22.1514 48.1934,21.2514 C48.3934,21.2514 48.5934,21.1514 48.7934,21.0513 C49.2934,20.7514 49.6934,20.3513 49.4934,20.1514 C49.3934,19.9513 48.8934,19.9513 48.2934,20.2514 C47.9934,20.3513 47.7934,20.5513 47.6934,20.7514 C45.3934,21.5513 38.5934,23.6514 32.2934,24.0513 C36.6934,22.7514 40.9934,19.9513 42.5934,18.9513 C42.7934,18.8513 42.9934,18.7514 43.1934,18.6514 C43.6934,18.2514 43.8934,17.8513 43.6934,17.6514 C43.4934,17.4513 42.9934,17.5513 42.5934,17.9513 C42.3934,18.1514 42.1934,18.3513 42.0934,18.5513 C40.1934,19.7514 34.7934,23.1514 30.0934,23.9513 C35.6934,21.7514 39.8934,17.3513 42.3934,14.9513 C42.6934,14.6514 42.9934,14.2514 43.2934,14.0513 C43.4934,13.9513 43.7934,13.8513 43.9934,13.5513 C44.3934,13.1514 44.5934,12.6514 44.3934,12.4513 C44.1934,12.2514 43.6934,12.4513 43.2934,12.8513 C43.0934,13.0513 42.9934,13.2514 42.8934,13.4513 C42.5934,13.7514 42.2934,14.0513 41.8934,14.4513 C39.9934,16.3513 36.9934,19.4513 33.1934,21.6514 C35.0934,19.7514 36.4934,17.5513 37.2934,16.1514 C37.3934,16.0513 37.3934,15.9513 37.4934,15.8513 C37.6934,15.7514 37.9934,15.5513 38.0934,15.1514 C38.3934,14.6514 38.4934,14.1514 38.1934,13.9513 C37.9934,13.8513 37.5934,14.1514 37.2934,14.6514 C37.1934,14.8513 37.0934,15.0513 37.0934,15.1514 C36.9934,15.3513 36.8934,15.5513 36.6934,15.7514 C35.4934,17.7514 33.1934,21.5513 29.7934,23.2514 C29.6934,23.2514 29.5934,23.3513 29.4934,23.3513 C32.8934,20.7514 35.9934,14.0513 37.3934,10.8513 C37.4934,10.6514 37.5934,10.5513 37.5934,10.3513 C37.7934,10.2514 37.9934,9.95135 38.0934,9.65135 C38.2934,9.15135 38.2934,8.55135 38.0934,8.45135 C37.8934,8.35135 37.4934,8.65135 37.1934,9.25135 C37.0934,9.45135 36.9934,9.75135 36.9934,9.95135 C36.8934,10.1514 36.7934,10.3513 36.6934,10.5513 C35.3934,13.5513 31.9934,20.8513 28.4934,23.0513 C29.6934,21.0513 32.0934,15.9513 32.8934,13.6514 C32.9934,13.4513 33.0934,13.2514 33.1934,13.0513 C33.3934,12.4513 33.2934,11.9513 32.9934,11.9513 C32.7934,11.8513 32.3934,12.2514 32.1934,12.8513 C32.0934,13.1514 32.0934,13.4513 32.0934,13.6514 C31.3934,15.5513 29.4934,19.8513 28.1934,22.2514 C28.5934,20.1514 29.6934,16.6514 31.4934,11.8513 C31.6934,11.7514 31.7934,11.4513 31.8934,11.1514 C32.0934,10.5513 31.9934,10.0513 31.7934,9.95135 C31.5934,9.85135 31.1934,10.2514 30.9934,10.8513 C30.8934,11.0513 30.8934,11.3513 30.8934,11.5513 C30.1934,13.4513 28.2934,18.1514 27.5934,21.4513 C27.5934,19.1514 27.9934,16.2514 28.2934,14.6514 C28.2934,14.4513 28.3934,14.2514 28.3934,14.1514 C28.4934,13.9513 28.6934,13.6514 28.6934,13.3513 C28.7934,12.7514 28.6934,12.2514 28.3934,12.2514 C28.0934,12.2514 27.8934,12.6514 27.7934,13.2514 C27.7934,13.5513 27.7934,13.7514 27.7934,13.9513 C27.7934,14.1514 27.6934,14.3513 27.6934,14.6514 C27.3934,16.6514 26.7934,20.1514 27.0934,22.5513 C25.5934,18.6514 26.5934,11.1514 26.9934,8.05135 C26.9934,7.75135 27.0934,7.45135 27.0934,7.25135 C27.1934,7.05135 27.3934,6.85135 27.3934,6.45135 C27.4934,5.85135 27.3934,5.35135 27.0934,5.35135 C26.7934,5.35135 26.4934,5.75135 26.3934,6.25135 C26.3934,6.55135 26.2934,6.75135 26.3934,6.95135 C26.3934,7.25135 26.2934,7.55135 26.2934,7.95135 C25.7934,11.3513 24.8934,18.6514 26.3934,22.7514 C26.2934,22.6514 26.2934,22.6514 26.1934,22.5513 C24.1934,19.2514 24.2934,14.8513 24.2934,12.5513 C24.2934,12.2514 24.2934,12.0513 24.2934,11.8513 C24.3934,11.6514 24.4934,11.3513 24.4934,11.0513 C24.5934,10.4513 24.3934,9.95135 24.0934,9.95135 C23.7934,9.95135 23.5934,10.3513 23.4934,10.9513 C23.4934,11.2514 23.4934,11.4513 23.5934,11.6514 C23.5934,11.9513 23.5934,12.2514 23.5934,12.5513 C23.5934,14.1514 23.4934,16.7514 24.1934,19.3513 C22.1934,15.4513 21.1934,11.2514 20.6934,8.65135 C20.4934,7.85135 20.3934,7.25135 20.2934,6.85135 C20.3934,6.65135 20.3934,6.35135 20.2934,6.05135 C20.1934,5.45135 19.8934,5.05135 19.5934,5.15135 C19.2934,5.25135 19.1934,5.75135 19.3934,6.25135 C19.4934,6.55135 19.5934,6.75135 19.6934,6.95135 C19.7934,7.35135 19.9934,8.05135 20.1934,8.85135 C20.8934,12.2514 22.2934,18.1514 25.7934,23.0513 C21.8934,19.4513 18.7934,12.7514 18.1934,11.5513 C18.1934,11.3513 18.1934,11.0513 18.0934,10.8513 C17.8934,10.3513 17.4934,9.95135 17.2934,10.0513 C17.0934,10.1514 16.9934,10.6514 17.1934,11.2514 C17.2934,11.5513 17.4934,11.7514 17.5934,11.9513 C18.0934,13.1514 20.4934,18.3513 23.7934,22.1514 C18.3934,18.2514 13.4934,12.4513 12.2934,10.9513 C12.2934,10.7514 12.1934,10.5513 11.9934,10.2514 C11.6934,9.75135 11.2934,9.45135 11.0934,9.55135 C10.8934,9.65135 10.8934,10.1514 11.1934,10.7514 C11.3934,11.0513 11.5934,11.2514 11.7934,11.3513 C13.2934,13.1514 19.9934,21.1514 26.5934,24.7514 C26.6934,24.7514 26.6934,24.8513 26.7934,24.8513 C26.7934,24.8513 26.7934,24.8513 26.7934,24.9513 L15.8934,46.1514 C15.1934,46.9513 14.3934,48.6514 13.7934,50.6514 C12.9934,53.6514 12.8934,56.1514 13.5934,56.3513 C14.2934,56.5513 15.5934,54.3513 16.4934,51.3513 C17.0934,49.3513 17.2934,47.4513 17.1934,46.4513 L28.4934,24.7514 Z" style="stroke:#000000;stroke-opacity:1;stroke-width:1;stroke-linejoin:round;stroke-miterlimit:2;stroke-linecap:round;fill-rule:nonzero;fill:#000000;fill-opacity:1;"/>
        </g>
    </g>
</svg>
